src/assets/new_UI/search.svg

<svg width="16" height="16" viewBox="0 0 16 16" fill="#E31337" xmlns="http://www.w3.org/2000/svg">
<path d="M6.02989 0.0371151C5.06035 0.193681 3.98447 0.607014 3.12127 1.17065C2.59584 1.51509 1.53247 2.57974 1.18844 3.1058C-0.212703 5.2664 -0.387846 7.8967 0.731819 10.1512C1.71387 12.1365 3.47781 13.4892 5.68586 13.9527C6.54907 14.1343 8.02527 14.0842 8.87597 13.8525C9.7767 13.5957 10.5461 13.2074 11.4781 12.531C11.5469 12.4809 11.9722 12.8755 13.3046 14.2094C14.9247 15.8314 15.0623 15.9567 15.3062 15.988C15.5439 16.0193 15.5877 16.0005 15.7941 15.7939C16.0005 15.5872 16.0193 15.5434 15.988 15.3054C15.9568 15.0611 15.8316 14.9234 14.2116 13.3013C12.8792 11.9674 12.4852 11.5416 12.5352 11.4727C13.2108 10.5395 13.5986 9.76923 13.855 8.86741C14.0865 8.0157 14.1365 6.53772 13.9551 5.67347C13.3609 2.84277 11.2779 0.732266 8.47564 0.124792C7.9377 0.00580217 6.54907 -0.0380363 6.02989 0.0371151ZM8.49441 1.47752C10.3084 1.99732 11.6908 3.21853 12.3851 4.92196C12.8042 5.95529 12.8917 7.33307 12.6103 8.42903C12.0786 10.4957 10.5023 12.0739 8.43811 12.6062C7.34347 12.888 5.96734 12.8003 4.93525 12.3807C3.55287 11.8171 2.32687 10.6272 1.78268 9.32458C1.41988 8.46034 1.33856 8.02822 1.34482 7.01994C1.35107 5.91145 1.45741 5.41671 1.90152 4.50236C2.6709 2.91792 4.10958 1.79691 5.87352 1.40863C6.5866 1.25206 7.81886 1.28338 8.49441 1.47752Z" fill="currentColor"/>
</svg>

<svg xmlns="http://www.w3.org/2000/svg" width="16" height="16" fill="currentColor" viewBox="0 0 16 16">
  <path fill="currentColor" d="M6.03.037a7.85 7.85 0 0 0-2.91 1.134c-.525.344-1.589 1.409-1.933 1.935-1.4 2.16-1.576 4.79-.456 7.045.982 1.986 2.746 3.338 4.954 3.802.863.181 2.34.131 3.19-.1.9-.257 1.67-.646 2.602-1.322.069-.05.494.345 1.827 1.678 1.62 1.622 1.757 1.748 2.001 1.779.238.031.282.012.488-.194.206-.207.225-.25.194-.489-.031-.244-.156-.382-1.776-2.004-1.333-1.334-1.727-1.76-1.677-1.828.676-.934 1.064-1.704 1.32-2.606.231-.851.281-2.33.1-3.194-.594-2.83-2.677-4.94-5.48-5.548C7.939.005 6.55-.038 6.03.037Zm2.464 1.44c1.814.52 3.197 1.742 3.891 3.445.42 1.033.507 2.411.225 3.507a5.764 5.764 0 0 1-4.172 4.177c-1.095.282-2.47.194-3.503-.225-1.382-.564-2.608-1.754-3.152-3.056-.363-.865-.444-1.297-.438-2.305.006-1.109.112-1.603.557-2.518C2.67 2.918 4.11 1.797 5.874 1.41c.713-.157 1.945-.126 2.62.069Z"/>
</svg>
